# Title: Ode to Joy
# Composer: Ludwig van Beethoven

tempo: 100

piano:
  o4 e e f g | g f e d | c c d e | e d c d |
  e e f g | g f e d | c c d e | d c b c |
  o5 d d e d c | b c d e | d c b c | b a g f |
  e e f g | g f e d | c c d e | e d c d |
  e e f g | g f e d | c c d e | d c b c |
